app/assets/images/payment_icons/indexo.svg

<svg width="38" height="24" viewBox="0 0 38 24" xmlns="http://www.w3.org/2000/svg" role="img" aria-labelledby="pi-indexo">
  <title id="pi-indexo">Indexo</title>
 <path opacity=".07"
        d="M35 0H3C1.3 0 0 1.3 0 3v18c0 1.7 1.4 3 3 3h32c1.7 0 3-1.3 3-3V3c0-1.7-1.4-3-3-3z"/>
 <path fill="#F9EB00"
        d="M35 1c1.1 0 2 .9 2 2v18c0 1.1-.9 2-2 2H3c-1.1 0-2-.9-2-2V3c0-1.1.9-2 2-2h32"/>
<path d="M33.418 6H35.334V7.91605H34.5793V6.71462H33.418V6Z" fill="black"/>
<path d="M4.59063 13.7142H3.83594V9.03906H4.59063V13.7142Z" fill="black"/>
<path d="M10.975 13.7142H10.2938L7.68577 10.3314L7.68243 13.7142H6.92773V9.03906H7.60896L10.2203 12.4219V9.03906H10.975V13.7142Z" fill="black"/>
<path d="M32.1982 11.3755C32.1982 12.7714 31.1864 13.7999 29.7505 13.7999C28.3146 13.7999 27.3027 12.7714 27.3027 11.3755C27.3027 9.97969 28.3146 8.95117 29.7505 8.95117C31.1864 8.95117 32.1982 9.97969 32.1982 11.3755ZM28.0942 11.3755C28.0942 12.384 28.7954 13.0753 29.7505 13.0753C30.7055 13.0753 31.4068 12.384 31.4068 11.3755C31.4068 10.3671 30.7055 9.67581 29.7505 9.67581C28.7954 9.67581 28.0942 10.3671 28.0942 11.3755Z" fill="black"/>
<path d="M23.2554 9.03906H22.3438L23.9366 11.3299L22.2773 13.7142H23.1652L24.3841 11.9143L25.593 13.7142H26.5046L23.2554 9.03906Z" fill="black"/>
<path d="M25.1593 10.8768L26.4423 9.03906H25.5507L24.7207 10.2665L25.1593 10.8768Z" fill="black"/>
<path d="M14.3682 9.03906H12.8184V9.75368H14.3682C15.4668 9.75368 16.0045 10.4249 16.0045 11.3766C16.0045 12.3284 15.4668 12.9996 14.3682 12.9996H12.8184V13.7142H14.3682C15.8308 13.7142 16.7959 12.7858 16.7959 11.3766C16.7959 9.9674 15.8308 9.03906 14.3682 9.03906Z" fill="black"/>
<path d="M21.2197 9.03906H17.9883V9.747H21.2197V9.03906Z" fill="black"/>
<path d="M20.9556 11.0059H18.25V11.7138H20.9556V11.0059Z" fill="black"/>
<path d="M21.2616 13.0059H17.9883V13.7138H21.2616V13.0059Z" fill="black"/>
</svg>

<svg width="38" height="24" viewBox="0 0 38 24" xmlns="http://www.w3.org/2000/svg" role="img" aria-labelledby="pi-indexo"><title id="pi-indexo">Indexo</title><path opacity=".07" d="M35 0H3C1.3 0 0 1.3 0 3v18c0 1.7 1.4 3 3 3h32c1.7 0 3-1.3 3-3V3c0-1.7-1.4-3-3-3z"/><path fill="#F9EB00" d="M35 1c1.1 0 2 .9 2 2v18c0 1.1-.9 2-2 2H3c-1.1 0-2-.9-2-2V3c0-1.1.9-2 2-2h32"/><path d="M33.418 6h1.916v1.916h-.755V6.715h-1.161V6zM4.59 13.714h-.754V9.04h.755v4.675zM10.975 13.714h-.681l-2.608-3.383-.004 3.383h-.754V9.04h.681l2.611 3.383V9.039h.755v4.675zM32.198 11.376c0 1.395-1.012 2.424-2.448 2.424-1.435 0-2.447-1.029-2.447-2.425 0-1.395 1.012-2.424 2.447-2.424 1.436 0 2.448 1.029 2.448 2.425zm-4.104 0c0 1.008.701 1.7 1.656 1.7.956 0 1.657-.692 1.657-1.7 0-1.009-.701-1.7-1.657-1.7-.955 0-1.656.691-1.656 1.7zM23.255 9.04h-.911l1.593 2.29-1.66 2.384h.888l1.22-1.8 1.208 1.8h.912l-3.25-4.675zM25.16 10.877l1.282-1.838h-.891l-.83 1.228.438.61zM14.368 9.04h-1.55v.714h1.55c1.099 0 1.636.67 1.636 1.623 0 .951-.537 1.623-1.636 1.623h-1.55v.714h1.55c1.463 0 2.428-.928 2.428-2.337 0-1.41-.965-2.338-2.428-2.338zM21.22 9.04h-3.232v.707h3.232v-.708zM20.956 11.006H18.25v.708h2.706v-.708zM21.262 13.006h-3.274v.708h3.274v-.708z" fill="#000"/></svg>
